X:248
T:Mandolin Meltdown
C:Johnny Staats ("Wires and Wood")
N:Transcribed by Steve Keating
L:1/8
Q:1/4=250
M:4/4
K:Bb
z8 | [g8B8D8G,8] | [g8B8D8G,8] | [g4B4D4G,4] [g4B4D4G,4] | [g2B2D2G,2] d2 g2 a2 | 
|: "First Break""Gm"ba ga gf gf | d_d =df dc Bd | "Cm"ed cd cB cB | "Eb"AB AG AG _GE | 
"D"DE _G=G AB c_d | dc Bc BG AF |1 "Gm"GD (3FGF "Bb"DC (3B,CB, | "A"G,2 d2 "G#"g2 a2 :|2 "Gm"GD (3FGF DC (3B,CB, | 
"Gm"G,2 G,G, [g2B2] _g=g | "D"ag _g=g _gd gd | cd cB cB AB | "Gm"AF GB AF D_G | 
GA Bc dc Bd | "Cm"c4 [g4c4E4] | z2 [a2c2F2] z[bdG] z2 | "D"[a2c2_G2] z[acG] z4 | 
[a4c4_G4] AB A2 | G2 D2 (3c_dc Bc | "Gm"B_G =GB AG _GD | _G=G GG GB G_G | G2 df ga bc' | 
"Gm"d'd dd c'd dd | b2 GB cd ef | "Cm"gG GG fG GG | "Eb"e2 ab ab ab | "D"a2 (3ab=b (3c'b_b a2 | 
_g2 (3g=g_a (3=a_ag _g=a | "Gm"g2 {_d}=d2 g2 a2 | b2 {_g}=g2 b2 c'b | _d'=d' d'd' d'b _d'c' | 
bc' bf gc' b2 | "Cm"[bf][bg] [bg][bg] [b2g2] _gf | "Eb"ef ec Bc e2 | "D"DE _GB AB c_d | 
dc Bc BG A_G | "Gm"GD (3FGF DC (3B,CB, | G,4 [g2B2] _G=G | "D"A2 _G2 =G_G E=G | 
_GE DG ED CE | "Gm"DC B,A, CB, A,C | B,2 DE DB, G,=B, | "Cm"CD EG E=B, CD | EG ED CD ED | 
"D"DE DE _GE GB | AB AB cB c2 | "Gm"[g2d2] [gd][gd] [g2d2] [gd][gd] | [b2f2] [bf][bf] [bf][bf] [bf][bf] | 
"Cm"[c'g][c'g] [c'g][c'g] [c'g][c'g] [c'g][c'g] | "Eb"[c'g][c'_a] [c'a][c'a] [c'4a4] | 
"D"DE _GB AB c_d | d2 g2 dc B2 | "Gm"GF DF DC B,A, | G,6 "Second Break"Bd | cd Bd Ad cd | 
Bd AB AG FG | DG FG EG DG | FG EG DE DC | D2 DE _GE GB | AB AB cB Ac | BA GB A_G DG | 
GA Bd g2 Bc | _dc Bc B2 dc | Bc BG BG EF | GF EF EE GE | EF ED CD EE | D2 DD CD A2 | 
B,D A2 A,D A2 | G,2 G,A, B,D F_G | GA Bd g2 _g=g | ag _g=g _gg ag | _g=g _g=g a_g =gg | 
ba ga gg bg | ga gg bg bg | bc' c'c' c'c' c'c' | c'c' bb bc' c'b | c'd' d'd' d'd' d'd' | 
(3d'_g'g' (3g'g'g' (3g'g'g' (3g'g'g' | g'=e' z2 fg gg | gb gg bg f2 | [ge][ge] [ge][ge] [ge][ge] [ge][ge] | 
[ge][_ae] [ae][ae] [a2e2] A2 | ca aa aa (3gag | _g2 A2 (3g=g_a =a_g | gA dA Bd BA | 
G2 DF GB GF | DF GA GF DF | BF AF GF DB, | CD EG cG EG | BG EG AG _GE | DE _GE GB AB | 
AB cd cB Ac | B_G =GB AF DF | GA Bd g4 | 
 

